X: 6
T: A Fig For A Kiss
R: slip jig
M: 9/8
L: 1/8
K: Edor
|: G2B E2B BAG | F2A D2A AFD | G2B E2B BAG |[1 B/c/dB AGF E2F :|2 B/c/dB AGF E3 |||: g2e g2e edB | f3 dfa afd |1 g2e g2e edB |AB/c/d efd e2f :|2 gfe agf gfe|dcB AGF E3||


Tune 750	Setting 28522

